src/icons/svg/wuJiaoXing.svg

<?xml version="1.0" standalone="no"?><!DOCTYPE svg PUBLIC "-//W3C//DTD SVG 1.1//EN" "http://www.w3.org/Graphics/SVG/1.1/DTD/svg11.dtd"><svg t="1614667183108" class="icon" viewBox="0 0 1024 1024" version="1.1" xmlns="http://www.w3.org/2000/svg" p-id="1063" xmlns:xlink="http://www.w3.org/1999/xlink" width="200" height="200"><defs><style type="text/css">@font-face { font-family: element-icons; src: url("chrome-extension://moombeodfomdpjnpocobemoiaemednkg/fonts/element-icons.woff") format("woff"), url("chrome-extension://moombeodfomdpjnpocobemoiaemednkg/fonts/element-icons.ttf ") format("truetype"); }
</style></defs><path d="M958.733019 411.348626 659.258367 353.59527 511.998465 85.535095 364.741633 353.59527 65.265958 411.348626 273.72878 634.744555 235.88794 938.463881 511.998465 808.479435 788.091594 938.463881 750.250754 634.744555Z" p-id="1064"></path></svg>

<svg class="icon" viewBox="0 0 1024 1024" xmlns="http://www.w3.org/2000/svg" width="200" height="200"><defs><style>@font-face{font-family:element-icons;src:url(chrome-extension://moombeodfomdpjnpocobemoiaemednkg/fonts/element-icons.woff) format(&quot;woff&quot;),url(&quot;chrome-extension://moombeodfomdpjnpocobemoiaemednkg/fonts/element-icons.ttf &quot;) format(&quot;truetype&quot;)}</style></defs><path d="M958.733 411.349l-299.475-57.754-147.26-268.06-147.256 268.06L65.266 411.35l208.463 223.396-37.841 303.719 276.11-129.985 276.094 129.985-37.841-303.72z"/></svg>
